docs/img/icons/control.svg

<svg width="48" height="48" viewBox="0 0 48 48" fill="none" xmlns="http://www.w3.org/2000/svg">
<path d="M33.4623 33.4195V23.689L39.0715 21.3655C43.5808 19.4978 45.7297 14.3096 43.862 9.80033C41.9942 5.29104 36.8061 3.14191 32.2967 5.00988L1.67353 17.6945L4.20854 21.4797L0 23.2229L3.35569 31.3243L9.18442 28.91L11.7194 32.6952L25.0202 27.1857V33.4195C23.9261 34.506 23.2473 36.0104 23.2473 37.6704C23.2473 40.9754 25.9362 43.6643 29.2412 43.6643C30.9014 43.6643 32.4058 42.9856 33.4922 41.8913H48V33.4494H33.4923C33.4823 33.4394 33.4723 33.4294 33.4623 33.4195ZM4.87782 27.6496L3.67473 24.7451L5.80454 23.8629L7.58861 26.5269L4.87782 27.6496ZM12.7733 29.2145L5.91929 18.98L33.373 7.60827C36.4497 6.33401 39.9892 7.80008 41.2636 10.8767C42.5379 13.9533 41.0717 17.4929 37.9952 18.7673L12.7733 29.2145ZM27.8327 26.0208L30.6497 24.854V31.8454C30.1977 31.7361 29.7264 31.6767 29.2412 31.6767C28.7561 31.6767 28.2847 31.7361 27.8327 31.8454V26.0208ZM29.2413 40.8518C27.4871 40.8518 26.0598 39.4245 26.0598 37.6703C26.0598 35.916 27.4871 34.4889 29.2413 34.4889C30.9956 34.4889 32.4228 35.916 32.4228 37.6703C32.4227 39.4246 30.9955 40.8518 29.2413 40.8518ZM35.0664 36.262H45.1876V39.079H35.0663C35.1756 38.6269 35.2351 38.1556 35.2351 37.6705C35.2351 37.1853 35.1757 36.714 35.0664 36.262Z" fill="#FF5A30"/>
</svg>

<svg width="48" height="48" fill="none" xmlns="http://www.w3.org/2000/svg"><path d="M33.462 33.42v-9.731l5.61-2.323c4.509-1.868 6.658-7.056 4.79-11.566-1.868-4.509-7.056-6.658-11.565-4.79L1.674 17.695l2.535 3.785L0 23.223l3.356 8.101 5.828-2.414 2.535 3.785 13.301-5.51v6.235a5.975 5.975 0 00-1.773 4.25 6 6 0 005.994 5.994c1.66 0 3.165-.678 4.251-1.773H48V33.45H33.492l-.03-.03zM4.878 27.65l-1.203-2.905 2.13-.882 1.784 2.664-2.711 1.123zm7.895 1.565L5.92 18.98 33.373 7.608a6.046 6.046 0 017.89 3.269 6.046 6.046 0 01-3.268 7.89L12.773 29.215zm15.06-3.194l2.817-1.167v6.991a5.984 5.984 0 00-2.817 0v-5.824zm1.408 14.83a3.185 3.185 0 01-3.181-3.18 3.185 3.185 0 013.181-3.182 3.185 3.185 0 013.182 3.181 3.185 3.185 0 01-3.182 3.182zm5.825-4.589h10.122v2.817H35.066a5.986 5.986 0 000-2.817z" fill="#FF5A30"/></svg>
